icons/objetive.svg

<svg xmlns="http://www.w3.org/2000/svg" viewBox="0 0 512 512"><path d="M503.467 247.467H486.4C482.008 126.8 385.2 29.992 264.533 25.6V8.533C264.533 3.82 260.713 0 256 0s-8.533 3.82-8.533 8.533V25.6C126.8 29.992 29.992 126.8 25.6 247.467H8.533C3.82 247.467 0 251.287 0 256s3.82 8.533 8.533 8.533H25.6C29.992 385.2 126.8 482.008 247.467 486.4v17.067c0 4.713 3.82 8.533 8.533 8.533s8.533-3.82 8.533-8.533V486.4C385.2 482.008 482.007 385.2 486.4 264.533h17.067c4.713 0 8.533-3.82 8.533-8.533s-3.82-8.533-8.533-8.533zm-256 221.866c-111.25-4.368-200.432-93.55-204.8-204.8h17.067c4.34 101.83 85.902 183.394 187.733 187.733v17.067zm0-34.645c-92.06-4.497-165.697-78.095-170.24-170.155h102.485c4 35.632 32.122 63.755 67.755 67.755v102.4zm0-119.637c-26.163-3.804-46.713-24.354-50.517-50.517h50.517v50.517zm0-67.584H196.95c3.804-26.163 24.354-46.713 50.517-50.517v50.517zm0-67.755c-35.632 4-63.755 32.122-67.755 67.755h-102.4c4.497-92.06 78.095-165.697 170.155-170.24v102.485zm0-119.98c-101.83 4.34-183.395 85.903-187.734 187.734H42.667c4.368-111.25 93.55-200.432 204.8-204.8v17.066zm17.066 17.58c92.062 4.497 165.697 78.095 170.24 170.155H332.288c-4-35.632-32.122-63.755-67.755-67.755v-102.4zm0 119.637c26.163 3.804 46.713 24.354 50.517 50.517h-50.517V196.95zm0 67.584h50.517c-3.804 26.163-24.354 46.713-50.517 50.517v-50.517zm0 67.755c35.632-4 63.755-32.122 67.755-67.755h102.4c-4.497 92.062-78.095 165.697-170.155 170.24V332.288zm0 137.045v-17.067c101.83-4.34 183.394-85.902 187.733-187.733h17.067c-4.367 111.25-93.55 200.433-204.8 204.8zm187.734-221.866c-4.34-101.83-85.902-183.394-187.733-187.733V42.667c111.25 4.368 200.432 93.55 204.8 204.8h-17.067z"/></svg>

<?xml version="1.0" encoding="iso-8859-1"?>
<!-- Generator: Adobe Illustrator 19.0.0, SVG Export Plug-In . SVG Version: 6.00 Build 0)  -->
<svg version="1.1" id="Layer_1" xmlns="http://www.w3.org/2000/svg" xmlns:xlink="http://www.w3.org/1999/xlink" x="0px" y="0px"
	 viewBox="0 0 512 512" style="enable-background:new 0 0 512 512;" xml:space="preserve">
<g>
	<g>
		<path d="M503.467,247.467H486.4C482.008,126.799,385.201,29.992,264.533,25.6V8.533C264.533,3.82,260.713,0,256,0
			s-8.533,3.82-8.533,8.533V25.6C126.799,29.992,29.992,126.799,25.6,247.467H8.533C3.82,247.467,0,251.287,0,256
			s3.82,8.533,8.533,8.533H25.6C29.992,385.201,126.799,482.008,247.467,486.4v17.067c0,4.713,3.82,8.533,8.533,8.533
			s8.533-3.82,8.533-8.533V486.4c120.667-4.392,217.474-101.199,221.867-221.867h17.067c4.713,0,8.533-3.82,8.533-8.533
			S508.18,247.467,503.467,247.467z M247.467,469.333c-111.249-4.368-200.432-93.551-204.8-204.8h17.067
			c4.339,101.831,85.902,183.394,187.733,187.733V469.333z M247.467,434.688c-92.061-4.497-165.697-78.095-170.24-170.155h102.485
			c3.999,35.632,32.122,63.755,67.755,67.755V434.688z M247.467,315.051c-26.163-3.804-46.713-24.354-50.517-50.517h50.517V315.051z
			 M247.467,247.467h-50.517c3.804-26.163,24.354-46.713,50.517-50.517V247.467z M247.467,179.712
			c-35.632,3.999-63.755,32.122-67.755,67.755h-102.4c4.497-92.061,78.095-165.697,170.155-170.24V179.712z M247.467,59.733
			C145.636,64.072,64.072,145.636,59.733,247.467H42.667c4.368-111.249,93.551-200.432,204.8-204.8V59.733z M264.533,77.312
			c92.062,4.497,165.697,78.095,170.24,170.155H332.288c-3.999-35.632-32.122-63.755-67.755-67.755V77.312z M264.533,196.949
			c26.163,3.804,46.713,24.354,50.517,50.517h-50.517V196.949z M264.533,264.533h50.517c-3.804,26.163-24.354,46.713-50.517,50.517
			V264.533z M264.533,332.288c35.632-3.999,63.755-32.122,67.755-67.755h102.4c-4.497,92.062-78.095,165.697-170.155,170.24V332.288
			z M264.533,469.333v-17.067c101.831-4.339,183.394-85.902,187.733-187.733h17.067
			C464.966,375.782,375.782,464.966,264.533,469.333z M452.267,247.467c-4.339-101.831-85.902-183.394-187.733-187.733V42.667
			c111.249,4.368,200.432,93.551,204.8,204.8H452.267z"/>
	</g>
</g>
<g>
</g>
<g>
</g>
<g>
</g>
<g>
</g>
<g>
</g>
<g>
</g>
<g>
</g>
<g>
</g>
<g>
</g>
<g>
</g>
<g>
</g>
<g>
</g>
<g>
</g>
<g>
</g>
<g>
</g>
</svg>
